X:1
T:Wallin, CM
T:Wallin, CM
T:Johann Georg Christian Störl, 1710
T:Public Domain Courtesy of the Cyber Hymnal™
C:Johann Georg Christian Störl, 1710
Z:Public Domain
Z:Courtesy of the Cyber Hymnal™
%%score ( 1 2 ) ( 3 4 )
L:1/8
Q:1/4=113
M:4/4
K:D
V:1 treble 
V:2 treble 
V:3 bass 
V:4 bass 
V:1
 [DA]2 | [DF]2 [DA]2 [DB]2 [DA]2 | [B,G]2 [B,E]2 [CF]2 [DA]2 | [Fd]2 [Fc]2 [FB]2 [EB]2 | %4
 [CA]6 [EA]2 | [Dd]2 [DA]2 [DB]2 [DA]2 | [B,G]2 [DF]2 [CE]2 [EA]2 | D2 [DF]2 [DE]2 [CE]2 | D6 |] %9
V:2
 x2 | x8 | x8 | x8 | x8 | x8 | x8 | D2 x6 | D6 |] %9
V:3
 [D,F,]2 | [D,A,]2 [F,A,]2 G,2 [D,F,]2 | [E,G,]2 [G,B,]2 [F,^A,]2 [F,=A,]2 | %3
 [B,,B,]2 [F,A,]2 [D,A,]2 [E,^G,]2 | [A,,A,]6 [C,E,]2 | [B,,F,]2 [D,F,]2 [G,,G,]2 [D,F,]2 | %6
 [E,G,]2 [F,A,]2 A,2 [C,A,]2 | [F,A,]2 [D,A,]2 [G,,B,]2 [A,,A,]2 | [D,F,]6 |] %9
V:4
 x2 | x4 G,2 x2 | x8 | x8 | x8 | x8 | x4 A,2 x2 | x8 | x6 |] %9

